packages/foundations/assets/icons/functional/images/arrows/arrow_right_20.svg

<svg width="20" height="20" viewBox="0 0 20 20" fill="none" xmlns="http://www.w3.org/2000/svg">
<g clip-path="url(#clip0_77_481)">
<path fill-rule="evenodd" clip-rule="evenodd" d="M16.6879 10.688C16.7874 10.6034 16.867 10.4978 16.9209 10.3789C16.9749 10.2599 17.0019 10.1305 16.9999 9.99996C16.9999 9.74996 16.9059 9.49996 16.6869 9.28096L11.7189 4.28096C11.524 4.09887 11.2667 3.99832 10.9999 3.99996C10.4369 3.99996 9.99994 4.43796 9.99994 4.99996C9.99994 5.24996 10.0939 5.49996 10.2809 5.68796L13.5939 8.99996H3.99994C3.43694 8.99996 2.99994 9.43796 2.99994 9.99996C2.99994 10.531 3.43794 11 3.99994 11H13.5939L10.2809 14.281C10.1036 14.4789 10.0039 14.7343 9.99994 15C9.99994 15.531 10.4379 16 10.9999 16C11.1352 16.002 11.2692 15.9751 11.3932 15.9211C11.5172 15.8671 11.6283 15.7873 11.7189 15.687L16.6879 10.688Z" fill="#1A1C1F"/>
</g>
<defs>
<clipPath id="clip0_77_481">
<rect width="20" height="20" fill="white"/>
</clipPath>
</defs>
</svg>

<svg xmlns="http://www.w3.org/2000/svg" width="20" height="20" fill="none"><g clip-path="url(#a)"><path fill="#1A1C1F" fill-rule="evenodd" d="M16.688 10.688A.89.89 0 0 0 17 10c0-.25-.094-.5-.313-.719l-4.968-5a1.04 1.04 0 0 0-.72-.281c-.562 0-1 .438-1 1 0 .25.095.5.282.688L13.594 9H4c-.563 0-1 .438-1 1 0 .531.438 1 1 1h9.594l-3.313 3.281A1.1 1.1 0 0 0 10 15a1.007 1.007 0 0 0 1.393.921.95.95 0 0 0 .326-.234z" clip-rule="evenodd"/></g><defs><clipPath id="a"><path fill="#fff" d="M0 0h20v20H0z"/></clipPath></defs></svg>
